X:1
T:La Bourr?e Carr?e de St Chartier
R:Bourree
B:Massif Central Tune Book no 1 number 88
M:2/4
L:1/8
N:originally in G
K:C
G2 AB|c3 e|d>c Bc|de d2|G2 AB|c3 e|d>c BA|G4:|
cd ed/e/|fe d2|ec Bc|dB AG|cd ed/e/|fe d2|ed/c/ Bd|c4:|
<end>
<start>
